X: 34014
T: Reel Carmen
R: reel
M: 4/4
K: Eminor
|:B,|E2 B,E GGEG|BBGB e3 B,|EEB,E GB,EG|FGAG F3 B,|
_EEB,E FFEF|B3 B B^ABc|BBAA GGAA|BAGE B,2 zB,|
E2 B,E GGEG|BEGB eeeB,|EEB,E GB,EG|FGAG F3 B,|
_EEB,E FFEF|B3 B B^ABc|BBAB GBFB|1 EEGB e3:|2 EEGB e3 d||
K: GMaj
|:B3 ^A B2 d2|G3 d FF=FF|E2 EG cEGc|EGcE GBAG|
FADF ADFA|d3 d d^cde|ddcc BB_BB|B4- BBDG|
BBB^A B2 d2|G3 d FF=FF|Ez EG cEGc|EGcE GBAG|
FADF ADFA|d3 d d^cde|1 ddcc BBAd|GGBd G3 D:|2 ddcc BBAA|GGBd g2 z|

